X:1
T:Regi n'an
T:Regin'anch'ella
T:Francesca Caccini
T:Source : Primo libro delle Musische a 1 e 2 voci---Firenze---Z.Pignoni---1618. Editor : André Vierendeels (15/06/15).
T:Notes : Original clefs : C1, F4 Figures in BC are notated in original print Editorial suggestions : m6-7, m11-12 and m15-16, played by an instrument. Fourth part of a 4-part sonetto, see also part 1 "La Pastorella", part 2 "Tra la gemme" and part 3 E tra i pomi".
C:Francesca Caccini
%%score 1 { 2 | 3 }
L:1/8
Q:1/4=120
M:4/4
K:C
V:1 treble nm="Soprano" snm="S"
V:2 treble nm="BC" snm="BC"
V:3 bass 
V:1
 z2 B2 B>c d2 | d2 c/B/A TA3 G | G2 G>F E>F G>A | G>A B/A/TA/G/ A4 | c2 de B4 | A6 z2 | z4 z2 c2- | %7
w: Re- gin'- _ _|an- ch'el- * * * la|par _ _ _ _ _ _|_ _ _ _ _ _ _|tra le don- zel-|le,|an-|
 c2 cc c2 Tc>.B | c8 | z2 d3 c/B/ A2- | A2 A2 A4 | G4 z4 | z4 z2 d2 | A2 B2 B2 TB>A | B2 z2 z4 | %15
w: * zi la De- a d'A-|mor|tra l'al- * *|* tra stel-|le,|an-|zi la De- a d'A-|mor|
 z2 d2 z/ e/d/c/ B/A/G/F/ | E/D/E/^F/ G/A/B/c/ d/A/B/c/ d/e/f/g/ | D/E/^F/G/ A/B/c/d/ ed/c/ TB>A | %18
w: tra l'al- * * * * * *|||
 G4 A>B c/B/B | z2 A/G/G A2- TA>.G | G8 |] %21
w: * tre _ _ _ _|stel- * * * * *|le.|
V:2
 z8 | z8 | z8 | z8 | z8 | A6 c2 | B2 B2 A2 c2 | z8 | z8 | z8 | z8 | G3 A Bc d2 | d2 ^c2 z4 | z8 | %14
 B2 TB>A G>A B>c | d2 d2 c2 A2 | z8 | z8 | z8 | z8 | z8 |] %21
V:3
 G,,4 G,4 | G,3 F, E,2 D,2 | C,4 C,2 D,2 | E,2 C,2 F,2 G,2 |"^-natural" A,2 D,^C, E,4 | A,,6 A,2 | %6
 A,2 G,2 F,4 |"^6" E,4 D,4 | C,4 C,2 D,2 | E,2 B,,2 C,2 D,2 | E,2 C,2 D,4 | G,,4 G,,2 ^F,,2 | %12
"^#" G,,2 A,,2 D,4 | D,2 B,,2 C,2 D,2 | G,,4 G,,2 A,,2 |"^6" B,,2 G,,2 C,2 D,2 | %16
"^-natural""^6" E,4 B,,4 |"^6" B,,4 C,2 D,2 |"^-natural""^6" E,4 C,2 B,,2 | D,4 D,,4 | G,,8 |] %21

